lg/gitter.svg

<svg viewBox="0 0 256 256" xmlns="http://www.w3.org/2000/svg" preserveAspectRatio="xMidYMid" height="1em" width="1em">
  <defs>
    <linearGradient x1="50%" y1="0%" x2="50%" y2="100%" id="a">
      <stop stop-color="#FB0766" offset="0%"/>
      <stop stop-color="#C50948" offset="100%"/>
    </linearGradient>
  </defs>
  <path d="M0 0h256v256H0V0Z" fill="url(#a)"/>
  <path d="M83.914 62.873h12.525v82.661H83.914V62.873Zm76.149 20.039h12.524v62.622h-12.524V82.912Zm-50.599 0h12.524v110.466h-12.524V82.912Zm25.049 0h12.525v110.466h-12.525V82.912Z" fill="#FFF"/>
</svg>

<svg viewBox="0 0 256 256" version="1.1" xmlns="http://www.w3.org/2000/svg" preserveAspectRatio="xMidYMid" height="1em" width="1em">
  <defs>
    <linearGradient x1="50%" y1="0%" x2="50%" y2="100%" id="a">
      <stop stop-color="#FB0766" offset="0%"/>
      <stop stop-color="#C50948" offset="100%"/>
    </linearGradient>
  </defs>
  <g>
    <path d="M0,0 L256,0 L256,256 L0,256 L0,0 Z" fill="url(#a)"/>
    <path d="M83.914,62.873 L96.439,62.873 L96.439,145.534 L83.914,145.534 L83.914,62.873 Z M160.063,82.912 L172.587,82.912 L172.587,145.534 L160.063,145.534 L160.063,82.912 Z M109.464,82.912 L121.988,82.912 L121.988,193.378 L109.464,193.378 L109.464,82.912 Z M134.513,82.912 L147.038,82.912 L147.038,193.378 L134.513,193.378 L134.513,82.912 Z" fill="#FFFFFF"/>
  </g>
</svg>
